src/assets/svg/fb.svg

<svg width="25" height="24" viewBox="0 0 25 24"  xmlns="http://www.w3.org/2000/svg">
<rect x="0.264282" width="23.8707" height="23.8707" rx="8" />
<path d="M12.9965 19.8921V12.6331H15.433L15.7978 9.80414H12.9965V7.99793C12.9965 7.1789 13.2239 6.62068 14.3985 6.62068L15.8966 6.61999V4.08981C15.6374 4.05546 14.7482 3.97845 13.7137 3.97845C11.5538 3.97845 10.0751 5.29676 10.0751 7.7179V9.80422H7.63226V12.6332H10.0751V19.8922L12.9965 19.8921Z" fill="#616161"/>
</svg>

<svg width="25" height="24" xmlns="http://www.w3.org/2000/svg"><rect x=".264" width="23.871" height="23.871" rx="8"/><path d="M12.996 19.892v-7.259h2.437l.365-2.829h-2.802V7.998c0-.82.228-1.377 1.402-1.377l1.499-.001V4.09a20.076 20.076 0 00-2.183-.112c-2.16 0-3.639 1.319-3.639 3.74v2.086H7.632v2.83h2.443v7.258h2.921z" fill="#616161"/></svg>
